X: 1
T: Cooley's Reel
R: reel
M: 4/4
L: 1/8
K: Edor
|:EBBA B2EB|B2AB dBAF|EBBA B2EF|GFED BEED:|
|:e2ef gfed|Bdef gfed|e2ef gfed|BdAF GBAF:|
